devices/128/video-display.svg

<?xml version="1.0" encoding="UTF-8" standalone="no"?>
<svg
   xmlns:dc="http://purl.org/dc/elements/1.1/"
   xmlns:cc="http://creativecommons.org/ns#"
   xmlns:rdf="http://www.w3.org/1999/02/22-rdf-syntax-ns#"
   xmlns:svg="http://www.w3.org/2000/svg"
   xmlns="http://www.w3.org/2000/svg"
   xmlns:xlink="http://www.w3.org/1999/xlink"
   id="svg4569"
   height="128"
   width="128"
   version="1.0">
  <metadata
     id="metadata46">
    <rdf:RDF>
      <cc:Work
         rdf:about="">
        <dc:format>image/svg+xml</dc:format>
        <dc:type
           rdf:resource="http://purl.org/dc/dcmitype/StillImage" />
        <dc:title />
      </cc:Work>
    </rdf:RDF>
  </metadata>
  <defs
     id="defs4571">
    <linearGradient
       id="linearGradient3912">
      <stop
         offset="0"
         style="stop-color:#787878;stop-opacity:1"
         id="stop3914" />
      <stop
         offset="0.35046947"
         style="stop-color:#b4b4b4;stop-opacity:1"
         id="stop3916" />
      <stop
         offset="0.49417919"
         style="stop-color:#c8c8c8;stop-opacity:1"
         id="stop3918" />
      <stop
         offset="0.58907253"
         style="stop-color:#e6e6e6;stop-opacity:1"
         id="stop3920" />
      <stop
         offset="1"
         style="stop-color:#8c8c8c;stop-opacity:1"
         id="stop3922" />
    </linearGradient>
    <linearGradient
       id="linearGradient6592-2-7">
      <stop
         offset="0"
         style="stop-color:#ffffff;stop-opacity:0.27450982"
         id="stop6594-0-2" />
      <stop
         offset="1"
         style="stop-color:#ffffff;stop-opacity:0"
         id="stop6596-2-5" />
    </linearGradient>
    <linearGradient
       id="linearGradient10691-1">
      <stop
         offset="0"
         style="stop-color:#000000;stop-opacity:1"
         id="stop10693-3" />
      <stop
         offset="1"
         style="stop-color:#000000;stop-opacity:0"
         id="stop10695-1" />
    </linearGradient>
    <linearGradient
       gradientTransform="matrix(2.6746618,0,0,2.5459707,-893.97886,-122.09114)"
       gradientUnits="userSpaceOnUse"
       xlink:href="#linearGradient3912"
       id="linearGradient3221"
       y2="94.396416"
       x2="361.10583"
       y1="87.050117"
       x1="361.10583" />
    <radialGradient
       gradientTransform="matrix(5.2570306,0,0,1.1067431,28.763637,34.526312)"
       gradientUnits="userSpaceOnUse"
       xlink:href="#linearGradient10691-1"
       id="radialGradient3226"
       fy="73.615715"
       fx="6.702713"
       r="7.228416"
       cy="73.615715"
       cx="6.702713" />
    <linearGradient
       id="linearGradient4084">
      <stop
         offset="0"
         style="stop-color:#ffffff;stop-opacity:1"
         id="stop4086" />
      <stop
         offset="0.01596775"
         style="stop-color:#ffffff;stop-opacity:0.23529412"
         id="stop4088" />
      <stop
         offset="0.99257565"
         style="stop-color:#ffffff;stop-opacity:0.15686275"
         id="stop4090" />
      <stop
         offset="1"
         style="stop-color:#ffffff;stop-opacity:0.39215687"
         id="stop4092" />
    </linearGradient>
    <linearGradient
       id="outerBackgroundGradient-5-0">
      <stop
         id="stop3864-8-6-4"
         offset="0"
         style="stop-color:#261e2b;stop-opacity:1;" />
      <stop
         id="stop3866-9-1-86"
         offset="1"
         style="stop-color:#352f39;stop-opacity:1;" />
    </linearGradient>
    <linearGradient
       xlink:href="#linearGradient6592-2-7"
       id="linearGradient3141"
       gradientUnits="userSpaceOnUse"
       gradientTransform="matrix(3.1000007,0,0,3.136008,-1.1000124,35.088071)"
       x1="10"
       y1="-3"
       x2="20"
       y2="12" />
    <linearGradient
       xlink:href="#linearGradient4084"
       id="linearGradient3144"
       gradientUnits="userSpaceOnUse"
       gradientTransform="matrix(3.3243244,0,0,2.3243242,-15.783808,-2.2837566)"
       x1="23.99999"
       y1="5.7531762"
       x2="23.99999"
       y2="42.121033" />
    <linearGradient
       xlink:href="#outerBackgroundGradient-5-0"
       id="linearGradient3148"
       gradientUnits="userSpaceOnUse"
       gradientTransform="matrix(2.8500006,0,0,3.2608694,4.150005,42.086958)"
       x1="15"
       y1="24.618645"
       x2="15"
       y2="2" />
    <linearGradient
       id="linearGradient4054-5">
      <stop
         offset="0"
         style="stop-color:#ffffff;stop-opacity:1"
         id="stop4056-0" />
      <stop
         offset="0.01719457"
         style="stop-color:#ffffff;stop-opacity:0.23529412"
         id="stop4058-4" />
      <stop
         offset="1"
         style="stop-color:#ffffff;stop-opacity:0.15686275"
         id="stop4060-4" />
      <stop
         offset="1"
         style="stop-color:#ffffff;stop-opacity:0.39215687"
         id="stop4062-0" />
    </linearGradient>
    <linearGradient
       xlink:href="#linearGradient4054-5"
       id="linearGradient3152-7"
       gradientUnits="userSpaceOnUse"
       gradientTransform="matrix(1.2162163,0,0,0.83783786,2.6663586,14.977385)"
       x1="47.546879"
       y1="121.84093"
       x2="47.546879"
       y2="99.079079" />
  </defs>
  <path
     style="opacity:0.3;fill:url(#radialGradient3226);fill-opacity:1;fill-rule:nonzero;stroke:none;stroke-width:0.80000001;marker:none;visibility:visible;display:inline;overflow:visible"
     id="path2589"
     d="m 102,116 c 0,4.41828 -17.013179,8 -38.000002,8 C 43.013178,124 26,120.41828 26,116 26,111.58172 43.013178,108 63.999998,108 84.986821,108 102,111.58172 102,116 l 0,0 z" />
  <path
     style="fill:url(#linearGradient3221);fill-opacity:1;fill-rule:nonzero;stroke:none;stroke-width:0.99827462;stroke-linecap:round;stroke-linejoin:round;stroke-miterlimit:4;stroke-opacity:1;stroke-dasharray:none;stroke-dashoffset:0.50000001;marker:none;visibility:visible;display:inline;overflow:visible;enable-background:new"
     id="rect1789"
     d="m 47.5,97.499139 c 0,0 0.397503,10.838601 -1.50061,13.364911 -1.898112,2.52633 -5.675011,4.13662 -5.675011,4.13662 -2.423623,0.2654 -2.443672,3.5002 0,3.5002 l 47.351051,0 c 2.443672,0 2.424131,-3.23819 0,-3.5002 0,0 -3.776735,-1.6103 -5.674819,-4.13662 C 80.102525,108.33775 80.5,97.499139 80.5,97.499139 l -32.983056,0 -0.01694,0 z" />
  <path
     style="display:inline;overflow:visible;visibility:visible;fill:none;fill-opacity:1;fill-rule:nonzero;stroke:#000000;stroke-width:0.99827462;stroke-linecap:round;stroke-linejoin:round;stroke-miterlimit:4;stroke-dasharray:none;stroke-dashoffset:0.5;stroke-opacity:1;marker:none;enable-background:new;color:#000000;clip-rule:nonzero;opacity:0.4;isolation:auto;mix-blend-mode:normal;color-interpolation:sRGB;color-interpolation-filters:linearRGB;solid-color:#000000;solid-opacity:1;filter-blend-mode:normal;filter-gaussianBlur-deviation:0;color-rendering:auto;image-rendering:auto;shape-rendering:auto;text-rendering:auto"
     id="rect1789-8"
     d="m 47.5,97.499139 c 0,0 0.397503,10.838601 -1.50061,13.364911 -1.898112,2.52633 -5.675011,4.13662 -5.675011,4.13662 -2.423623,0.2654 -2.443672,3.5002 0,3.5002 l 47.351051,0 c 2.443672,0 2.424131,-3.23819 0,-3.5002 0,0 -3.776735,-1.6103 -5.674819,-4.13662 C 80.102525,108.33775 80.5,97.499139 80.5,97.499139 l -32.983056,0 -0.01694,0 z" />
  <rect
     style="fill:#1a1a1a;fill-opacity:1;stroke:#000000;stroke-width:1.00023937;stroke-linecap:round;stroke-linejoin:round;stroke-miterlimit:4;stroke-dasharray:none;stroke-dashoffset:0.5;stroke-opacity:1"
     id="rect2722-7"
     y="9.500124"
     x="1.5001197"
     ry="2.5"
     rx="2.5"
     height="87.999756"
     width="124.99976" />
  <path
     id="rect2722-0"
     d="m 7.000002,16.000002 113.999998,0 0,75 -113.999998,0 z"
     style="display:inline;fill:url(#linearGradient3148);fill-opacity:1;stroke:none" />
  <rect
     style="opacity:0.2;fill:none;stroke:url(#linearGradient3144);stroke-width:0.99999994;stroke-linecap:round;stroke-linejoin:round;stroke-miterlimit:4;stroke-dasharray:none;stroke-dashoffset:0;stroke-opacity:1"
     id="rect6741"
     y="10.500002"
     x="2.5000052"
     ry="1.5"
     rx="1.5"
     height="86"
     width="122.99999" />
  <path
     id="rect2722-0-3"
     d="M 7 16 L 7 91 L 121 91 L 121 16 L 7 16 z M 8 17 L 120 17 L 120 90 L 8 90 L 8 17 z "
     style="display:inline;fill:#000000;fill-opacity:1;stroke:none;color:#000000;clip-rule:nonzero;overflow:visible;visibility:visible;opacity:0.2;isolation:auto;mix-blend-mode:normal;color-interpolation:sRGB;color-interpolation-filters:linearRGB;solid-color:#000000;solid-opacity:1;fill-rule:nonzero;stroke-width:1;stroke-linecap:butt;stroke-linejoin:miter;stroke-miterlimit:4;stroke-dasharray:none;stroke-dashoffset:0;stroke-opacity:1;filter-blend-mode:normal;filter-gaussianBlur-deviation:0;color-rendering:auto;image-rendering:auto;shape-rendering:auto;text-rendering:auto;enable-background:accumulate" />
  <path
     id="rect3872"
     d="m 2.0000053,10.000002 0,56.448151 124.0000047,-41.160107 0,-15.288044 z"
     style="display:inline;opacity:0.2;fill:url(#linearGradient3141);fill-opacity:1;stroke:none" />
  <path
     id="path4419"
     d="m 48.478516,98.486328 c 0.02065,0.733663 0.08406,2.260412 -0.03125,4.792972 -0.06997,1.53666 -0.199201,3.15889 -0.439454,4.59375 -0.240251,1.43485 -0.530844,2.66645 -1.21875,3.58203 -2.154724,2.86787 -6.078125,4.45312 -6.078124,4.45312 -0.08905,0.0376 -0.183159,0.062 -0.279297,0.0723 -0.78107,0.0855 -0.944221,0.50444 -0.945313,0.87109 -5.46e-4,0.18333 0.05961,0.3357 0.167969,0.44532 0.108361,0.1096 0.276609,0.21679 0.669922,0.21679 l 47.351562,0 c 0.393085,0 0.561397,-0.10695 0.669922,-0.21679 0.108525,-0.10986 0.170455,-0.26169 0.169922,-0.44532 -0.0011,-0.36726 -0.164558,-0.7867 -0.945313,-0.87109 -0.0968,-0.0101 -0.191578,-0.0344 -0.28125,-0.0723 0,0 -3.923422,-1.58525 -6.078124,-4.45312 -0.687899,-0.91557 -0.9785,-2.14718 -1.21875,-3.58203 -0.240252,-1.43485 -0.369484,-3.05709 -0.439454,-4.59375 -0.115315,-2.53256 -0.0519,-4.059308 -0.03125,-4.792972"
     style="color:#000000;clip-rule:nonzero;display:inline;overflow:visible;visibility:visible;opacity:0.6;isolation:auto;mix-blend-mode:normal;color-interpolation:sRGB;color-interpolation-filters:linearRGB;solid-color:#000000;solid-opacity:1;fill:none;fill-opacity:1;fill-rule:nonzero;stroke:url(#linearGradient3152-7);stroke-width:1;stroke-linecap:round;stroke-linejoin:round;stroke-miterlimit:4;stroke-dasharray:none;stroke-dashoffset:0;stroke-opacity:1;marker:none;color-rendering:auto;image-rendering:auto;shape-rendering:auto;text-rendering:auto;enable-background:accumulate" />
</svg>

<svg xmlns="http://www.w3.org/2000/svg" xmlns:xlink="http://www.w3.org/1999/xlink" viewBox="0 0 128 128" version="1"><defs><linearGradient id="a"><stop offset="0" stop-color="#787878"/><stop offset=".35" stop-color="#b4b4b4"/><stop offset=".494" stop-color="#c8c8c8"/><stop offset=".589" stop-color="#e6e6e6"/><stop offset="1" stop-color="#8c8c8c"/></linearGradient><linearGradient id="c"><stop offset="0" stop-color="#fff" stop-opacity=".275"/><stop offset="1" stop-color="#fff" stop-opacity="0"/></linearGradient><linearGradient id="b"><stop offset="0"/><stop offset="1" stop-opacity="0"/></linearGradient><linearGradient gradientTransform="matrix(2.67466 0 0 2.54597 -893.98 -122.09)" gradientUnits="userSpaceOnUse" xlink:href="#a" id="h" y2="94.396" x2="361.106" y1="87.05" x1="361.106"/><radialGradient gradientTransform="matrix(5.25703 0 0 1.10674 28.764 34.526)" gradientUnits="userSpaceOnUse" xlink:href="#b" id="g" fy="73.616" fx="6.703" r="7.228" cy="73.616" cx="6.703"/><linearGradient id="d"><stop offset="0" stop-color="#fff"/><stop offset=".016" stop-color="#fff" stop-opacity=".235"/><stop offset=".993" stop-color="#fff" stop-opacity=".157"/><stop offset="1" stop-color="#fff" stop-opacity=".392"/></linearGradient><linearGradient id="e"><stop offset="0" stop-color="#261e2b"/><stop offset="1" stop-color="#352f39"/></linearGradient><linearGradient xlink:href="#c" id="k" gradientUnits="userSpaceOnUse" gradientTransform="matrix(3.1 0 0 3.136 -1.1 35.088)" x1="10" y1="-3" x2="20" y2="12"/><linearGradient xlink:href="#d" id="j" gradientUnits="userSpaceOnUse" gradientTransform="matrix(3.32432 0 0 2.32432 -15.784 -2.284)" x1="24" y1="5.753" x2="24" y2="42.121"/><linearGradient xlink:href="#e" id="i" gradientUnits="userSpaceOnUse" gradientTransform="matrix(2.85 0 0 3.26087 4.15 42.087)" x1="15" y1="24.619" x2="15" y2="2"/><linearGradient id="f"><stop offset="0" stop-color="#fff"/><stop offset=".017" stop-color="#fff" stop-opacity=".235"/><stop offset="1" stop-color="#fff" stop-opacity=".157"/><stop offset="1" stop-color="#fff" stop-opacity=".392"/></linearGradient><linearGradient xlink:href="#f" id="l" gradientUnits="userSpaceOnUse" gradientTransform="matrix(1.21622 0 0 .83784 2.666 14.977)" x1="47.547" y1="121.841" x2="47.547" y2="99.079"/></defs><path d="M102 116c0 4.418-17.013 8-38 8s-38-3.582-38-8 17.013-8 38-8 38 3.582 38 8z" opacity=".3" fill="url(#g)" overflow="visible"/><path d="M47.5 97.5s.398 10.838-1.5 13.364C44.1 113.39 40.323 115 40.323 115c-2.423.266-2.443 3.5 0 3.5h47.35c2.445 0 2.426-3.237 0-3.5 0 0-3.775-1.61-5.673-4.136-1.897-2.526-1.5-13.365-1.5-13.365h-33z" fill="url(#h)" overflow="visible"/><path style="isolation:auto;mix-blend-mode:normal;filter-blend-mode:normal;filter-gaussianBlur-deviation:0" d="M47.5 97.5s.398 10.838-1.5 13.364C44.1 113.39 40.323 115 40.323 115c-2.423.266-2.443 3.5 0 3.5h47.35c2.445 0 2.426-3.237 0-3.5 0 0-3.775-1.61-5.673-4.136-1.897-2.526-1.5-13.365-1.5-13.365h-33z" overflow="visible" fill="none" stroke="#000" stroke-width=".998" stroke-linecap="round" stroke-linejoin="round" stroke-dashoffset=".5" color="#000" opacity=".4"/><rect y="9.5" x="1.5" ry="2.5" rx="2.5" height="88" width="125" fill="#1a1a1a" stroke="#000" stroke-linecap="round" stroke-linejoin="round" stroke-dashoffset=".5"/><path d="M7 16h114v75H7z" fill="url(#i)"/><rect y="10.5" x="2.5" ry="1.5" rx="1.5" height="86" width="123" opacity=".2" fill="none" stroke="url(#j)" stroke-linecap="round" stroke-linejoin="round"/><path d="M7 16v75h114V16H7zm1 1h112v73H8V17z" style="isolation:auto;mix-blend-mode:normal;filter-blend-mode:normal;filter-gaussianBlur-deviation:0" color="#000" overflow="visible" opacity=".2"/><path d="M2 10v56.448l124-41.16V10z" opacity=".2" fill="url(#k)"/><path d="M48.48 98.486c.02.734.083 2.26-.033 4.793-.07 1.53-.2 3.15-.44 4.59s-.53 2.66-1.218 3.58c-2.16 2.87-6.08 4.45-6.08 4.45a.99.99 0 0 1-.28.072c-.78.085-.95.504-.95.87 0 .184.06.336.17.446.11.11.273.217.67.217h47.35c.39 0 .56-.107.67-.217a.618.618 0 0 0 .17-.443c0-.37-.168-.788-.95-.87a.985.985 0 0 1-.28-.075s-3.924-1.584-6.08-4.452c-.687-.915-.98-2.147-1.22-3.582s-.37-3.056-.44-4.593c-.113-2.534-.05-4.06-.03-4.795" style="isolation:auto;mix-blend-mode:normal" color="#000" overflow="visible" opacity=".6" fill="none" stroke="url(#l)" stroke-linecap="round" stroke-linejoin="round"/></svg>
